;FLAVOR:Marlin
;TIME:1529
;Filament used: 0.809868m
;Layer height: 0.15
;MINX:122.63
;MINY:142.268
;MINZ:0.1
;MAXX:168.249
;MAXY:162.688
;MAXZ:17.2
;Generated with Cura_SteamEngine 4.2.1
M140 S65
M105
M190 S65
M104 S230
M105
M109 S230
M82 ;absolute extrusion mode
G21 ;metric values
G90 ;absolute positioning
M82 ;set extruder to absolute mode
M107 ;start with the fan off
G28 X0 Y0 ;move X/Y to min endstops
G28 Z0 ;move Z to min endstops
G1 Z15.0 F120 ;move the platform down 15mm
G92 E0 ;zero the extruded length
G1 F200 E3 ;extrude 3mm of feed stock
G92 E0 ;zero the extruded length again
G1 F120
M117 Printing...
G5
M141 S28
G92 E0
G92 E0
G1 F1800 E-10
;LAYER_COUNT:115
;LAYER:0
M107
;MESH:KEY_F.STL(3)
G0 F2880 X126.932 Y144.961 Z0.1
;TYPE:WALL-INNER
G1 F1800 E0
G1 F1200 X126.932 Y145.155 E0.00315
G1 X126.938 Y147.877 E0.04728
G1 X125.213 Y147.885 E0.07525
G1 X125.019 Y147.885 E0.0784
G1 X125.019 Y147.691 E0.08043
G1 X125.014 Y144.966 E0.12462
G1 X126.738 Y144.961 E0.15257
G1 X126.932 Y144.961 E0.1546
G0 F2880 X127.321 Y144.764
G1 F1200 X127.329 Y148.266 E0.21139
G1 X124.824 Y148.276 E0.252
G1 X124.63 Y148.276 E0.25515
G1 X124.63 Y148.082 E0.25718
G1 X124.623 Y144.577 E0.31402
G1 X127.127 Y144.57 E0.35462
G1 X127.321 Y144.57 E0.35776
G1 X127.321 Y144.764 E0.3598
G0 F2880 X127.71 Y144.373
G1 F1200 X127.72 Y148.655 E0.42923
G1 X124.435 Y148.667 E0.48249
G1 X124.241 Y148.667 E0.48564
G1 X124.241 Y148.473 E0.48767
G1 X124.232 Y144.188 E0.55715
G1 X127.516 Y144.179 E0.6104
G1 X127.71 Y144.179 E0.61354
G1 X127.71 Y144.373 E0.61558
G0 F2880 X128.099 Y143.982
G1 F1200 X128.111 Y149.044 E0.69766
G1 X124.046 Y149.058 E0.76357
G1 X123.852 Y149.058 E0.76671
G1 X123.852 Y148.864 E0.76875
G1 X123.841 Y143.799 E0.85087
G1 X127.905 Y143.788 E0.91677
G1 X128.099 Y143.788 E0.91991
G1 X128.099 Y143.982 E0.92195
G0 F2880 X128.149 Y143.398
G1 F1200 X128.199 Y143.398 E0.92276
G1 X128.468 Y143.406 E0.92712
G1 X128.488 Y143.418 E0.9275
G1 X128.488 Y143.468 E0.92831
G1 X128.501 Y149.186 E1.02103
G1 X128.493 Y149.409 E1.02464
G1 X128.485 Y149.433 E1.02505
G1 X123.804 Y149.448 E1.10095
G1 X123.756 Y149.448 E1.10173
G1 X123.471 Y149.435 E1.10636
G1 X123.463 Y149.426 E1.10655
G1 X123.463 Y149.378 E1.10733
G1 X123.451 Y143.657 E1.20009
G1 X123.458 Y143.436 E1.20368
G1 X123.465 Y143.415 E1.20404
G1 X123.474 Y143.41 E1.20421
G1 X128.149 Y143.398 E1.28001
G0 F2880 X128.21 Y143.008
G1 F1200 X128.533 Y143.018 E1.28525
G1 X128.661 Y143.059 E1.28743
G1 X128.764 Y143.134 E1.28949
G1 X128.84 Y143.24 E1.29161
G1 X128.878 Y143.357 E1.2936
G1 X128.891 Y149.2 E1.38834
G1 X128.881 Y149.478 E1.39285
G1 X128.838 Y149.61 E1.3951
G1 X128.765 Y149.712 E1.39714
G1 X128.663 Y149.785 E1.39917
G1 X128.605 Y149.803 E1.40016
G1 X128.539 Y149.825 E1.40128
G1 X123.744 Y149.838 E1.47903
G1 X123.417 Y149.827 E1.48434
G1 X123.293 Y149.787 E1.48645
G1 X123.187 Y149.711 E1.48856
G1 X123.112 Y149.608 E1.49063
G1 X123.073 Y149.487 E1.49269
G1 X123.061 Y143.644 E1.58743
G1 X123.07 Y143.366 E1.59194
G1 X123.112 Y143.238 E1.59413
G1 X123.187 Y143.134 E1.59621
G1 X123.291 Y143.059 E1.59828
G1 X123.412 Y143.02 E1.60035
G1 X128.21 Y143.008 E1.67814
G0 F2880 X128.818 Y142.753
;TYPE:WALL-OUTER
G1 F1200 X129.008 Y142.891 E1.68195
G1 X129.146 Y143.082 E1.68577
G1 X129.218 Y143.304 E1.68955
G1 X129.231 Y149.213 E1.78537
G1 X129.219 Y149.538 E1.79064
G1 X129.146 Y149.765 E1.7945
G1 X129.008 Y149.955 E1.79831
G1 X128.818 Y150.093 E1.80212
G1 X128.594 Y150.165 E1.80594
G1 X123.734 Y150.178 E1.88474
G1 X123.36 Y150.166 E1.8908
G1 X123.135 Y150.093 E1.89464
G1 X122.944 Y149.955 E1.89846
G1 X122.806 Y149.765 E1.90227
G1 X122.733 Y149.54 E1.9061
G1 X122.721 Y143.632 E2.0019
G1 X122.732 Y143.309 E2.00714
G1 X122.806 Y143.081 E2.01102
G1 X122.944 Y142.891 E2.01483
G1 X123.134 Y142.753 E2.01864
G1 X123.359 Y142.68 E2.02248
G1 X128.219 Y142.668 E2.10128
G1 X128.59 Y142.679 E2.1073
G1 X128.818 Y142.753 E2.11118
G0 F2880 X129.008 Y142.891
G0 X129.105 Y143.025
G0 X128.756 Y143.276
G0 X128.747 Y143.282
G0 X126.552 Y145.342
;TYPE:SKIN
G1 F1200 X126.558 Y147.499 E2.14616
G1 X125.399 Y147.503 E2.16495
G1 X125.394 Y145.345 E2.19994
G1 X126.552 Y145.342 E2.21872
G0 F2880 X126.358 Y145.662
G1 F1200 X126.232 Y145.536 E2.2216
G0 F2880 X125.681 Y145.537
G1 F1200 X126.359 Y146.215 E2.23715
G0 F2880 X126.361 Y146.768
G1 F1200 X125.589 Y145.996 E2.25485
G0 F2880 X125.591 Y146.55
G1 F1200 X126.345 Y147.304 E2.27214
G0 F2880 X125.795 Y147.305
G1 F1200 X125.592 Y147.102 E2.2768
G1 F1800 E-7.7232
;MESH:KEY_F.STL
G0 F2880 X128.881 Y144.71
G0 X133.767 Y144.7
G0 X137.636 Y144.691
;TYPE:WALL-INNER
G1 F1800 E2.2768
G1 F1200 X137.636 Y144.885 E2.27994
G1 X137.641 Y147.61 E2.32413
G1 X135.916 Y147.615 E2.3521
G1 X135.722 Y147.615 E2.35524
G1 X135.722 Y147.421 E2.35728
G1 X135.717 Y144.696 E2.40146
G1 X137.442 Y144.691 E2.42943
G1 X137.636 Y144.691 E2.43147
G0 F2880 X138.025 Y144.494
G1 F1200 X138.032 Y147.999 E2.4883
G1 X135.527 Y148.006 E2.52892
G1 X135.333 Y148.006 E2.53206
G1 X135.333 Y147.812 E2.5341
G1 X135.326 Y144.307 E2.59093
G1 X137.831 Y144.3 E2.63154
G1 X138.025 Y144.3 E2.63469
G1 X138.025 Y144.494 E2.63673
G0 F2880 X138.414 Y144.103
G1 F1200 X138.423 Y148.388 E2.7062
G1 X135.138 Y148.397 E2.75947
G1 X134.944 Y148.397 E2.76261
G1 X134.944 Y148.203 E2.76465
G1 X134.935 Y143.918 E2.83413
G1 X138.22 Y143.909 E2.88739
G1 X138.414 Y143.909 E2.89054
G1 X138.414 Y144.103 E2.89257
G0 F2880 X138.803 Y143.712
G1 F1200 X138.814 Y148.777 E2.9747
G1 X134.749 Y148.788 E3.04061
G1 X134.555 Y148.788 E3.04375
G1 X134.555 Y148.594 E3.04579
G1 X134.544 Y143.529 E3.12791
G1 X138.609 Y143.518 E3.19383
G1 X138.803 Y143.518 E3.19697
G1 X138.803 Y143.712 E3.19901
G0 F2880 X138.853 Y143.128
G1 F1200 X138.902 Y143.128 E3.1998
G1 X139.171 Y143.136 E3.20416
G1 X139.192 Y143.15 E3.20457
G1 X139.192 Y143.199 E3.20537
G1 X139.204 Y148.919 E3.29811
G1 X139.197 Y149.14 E3.3017
G1 X139.19 Y149.161 E3.30206
G1 X139.181 Y149.166 E3.30223
G1 X134.505 Y149.178 E3.37804
G1 X134.456 Y149.178 E3.37884
G1 X134.172 Y149.165 E3.38345
G1 X134.166 Y149.156 E3.38362
G1 X134.166 Y149.107 E3.38442
G1 X134.154 Y143.387 E3.47716
G1 X134.161 Y143.169 E3.4807
G1 X134.17 Y143.143 E3.48115
G1 X134.177 Y143.14 E3.48127
G1 X138.853 Y143.128 E3.55709
G0 F2880 X138.913 Y142.738
G1 F1200 X139.237 Y142.748 E3.56234
G1 X139.364 Y142.789 E3.56451
G1 X139.468 Y142.864 E3.56659
G1 X139.543 Y142.968 E3.56867
G1 X139.582 Y143.089 E3.57073
G1 X139.594 Y148.932 E3.66547
G1 X139.585 Y149.21 E3.66998
G1 X139.543 Y149.338 E3.67216
G1 X139.468 Y149.442 E3.67424
G1 X139.364 Y149.517 E3.67632
G1 X139.243 Y149.556 E3.67838
G1 X134.445 Y149.568 E3.75618
G1 X134.122 Y149.558 E3.76142
G1 X133.994 Y149.517 E3.7636
G1 X133.89 Y149.442 E3.76568
G1 X133.815 Y149.338 E3.76776
G1 X133.776 Y149.217 E3.76982
G1 X133.764 Y143.374 E3.86456
G1 X133.773 Y143.101 E3.86899
G1 X133.817 Y142.966 E3.87129
G1 X133.89 Y142.864 E3.87332
G1 X133.994 Y142.789 E3.8754
G1 X134.115 Y142.75 E3.87746
G1 X138.913 Y142.738 E3.95526
G0 F2880 X139.521 Y142.483
;TYPE:WALL-OUTER
G1 F1200 X139.711 Y142.621 E3.95907
G1 X139.849 Y142.811 E3.96287
G1 X139.922 Y143.036 E3.96671
G1 X139.934 Y148.944 E4.0625
G1 X139.923 Y149.267 E4.06774
G1 X139.849 Y149.495 E4.07163
G1 X139.711 Y149.685 E4.07544
G1 X139.521 Y149.823 E4.07925
G1 X139.296 Y149.896 E4.08308
G1 X134.436 Y149.908 E4.16188
G1 X134.065 Y149.897 E4.1679
G1 X133.837 Y149.823 E4.17179
G1 X133.647 Y149.685 E4.1756
G1 X133.509 Y149.495 E4.1794
G1 X133.436 Y149.27 E4.18324
G1 X133.424 Y143.362 E4.27903
G1 X133.435 Y143.04 E4.28426
G1 X133.509 Y142.811 E4.28816
G1 X133.647 Y142.621 E4.29197
G1 X133.837 Y142.483 E4.29577
G1 X134.062 Y142.41 E4.29961
G1 X138.922 Y142.398 E4.37841
G1 X139.294 Y142.409 E4.38445
G1 X139.521 Y142.483 E4.38832
G0 F2880 X139.711 Y142.621
G0 X139.808 Y142.755
G0 X139.46 Y143.008
G0 X139.452 Y143.013
G0 X137.256 Y145.072
;TYPE:SKIN
G1 F1200 X137.261 Y147.231 E4.42332
G1 X136.102 Y147.234 E4.44212
G1 X136.097 Y145.075 E4.47712
G1 X137.256 Y145.072 E4.49592
G0 F2880 X136.994 Y145.267
G1 F1200 X137.062 Y145.335 E4.49748
G0 F2880 X137.063 Y145.888
G1 F1200 X136.442 Y145.267 E4.51172
G0 F2880 X136.292 Y145.668
G1 F1200 X137.065 Y146.441 E4.52944
G0 F2880 X137.066 Y146.994
G1 F1200 X136.293 Y146.221 E4.54717
G0 F2880 X136.295 Y146.774
G1 F1200 X136.557 Y147.037 E4.55319
G1 F1800 E-5.44681
;MESH:KEY_F.STL(5)
G0 F2880 X139.585 Y144.625
G0 X145.099 Y144.614
G0 X148.968 Y144.606
;TYPE:WALL-INNER
G1 F1800 E4.55319
G1 F1200 X148.968 Y144.8 E4.55633
G1 X148.973 Y147.525 E4.60051
G1 X147.25 Y147.53 E4.62845
G1 X147.056 Y147.53 E4.6316
G1 X147.056 Y147.336 E4.63363
G1 X147.049 Y144.614 E4.67777
G1 X148.774 Y144.606 E4.70574
G1 X148.968 Y144.606 E4.70777
G0 F2880 X149.357 Y144.409
G1 F1200 X149.364 Y147.914 E4.7646
G1 X146.861 Y147.921 E4.80519
G1 X146.667 Y147.921 E4.80833
G1 X146.667 Y147.727 E4.81037
G1 X146.658 Y144.225 E4.86715
G1 X149.163 Y144.215 E4.90777
G1 X149.357 Y144.215 E4.91091
G1 X149.357 Y144.409 E4.91295
G0 F2880 X149.746 Y144.018
G1 F1200 X149.755 Y148.303 E4.98243
G1 X146.472 Y148.312 E5.03566
G1 X146.278 Y148.312 E5.03881
G1 X146.278 Y148.118 E5.04084
G1 X146.267 Y143.836 E5.11027
G1 X149.552 Y143.824 E5.16354
G1 X149.746 Y143.824 E5.16668
G1 X149.746 Y144.018 E5.16872
G0 F2880 X150.135 Y143.627
G1 F1200 X150.146 Y148.692 E5.25084
G1 X146.083 Y148.703 E5.31672
G1 X145.889 Y148.703 E5.31987
G1 X145.889 Y148.509 E5.3219
G1 X145.876 Y143.447 E5.40398
G1 X149.941 Y143.433 E5.46989
G1 X150.135 Y143.433 E5.47304
G1 X150.135 Y143.627 E5.47507
G0 F2880 X150.183 Y143.043
G1 F1200 X150.231 Y143.043 E5.47585
G1 X150.503 Y143.052 E5.48026
G1 X150.524 Y143.065 E5.48066
G1 X150.524 Y143.113 E5.48144
G1 X150.536 Y148.834 E5.5742
G1 X150.529 Y149.055 E5.57779
G1 X150.523 Y149.074 E5.57811
G1 X150.511 Y149.081 E5.57834
G1 X145.838 Y149.093 E5.65411
G1 X145.788 Y149.093 E5.65492
G1 X145.508 Y149.08 E5.65946
G1 X145.5 Y149.074 E5.65962
G1 X145.5 Y149.024 E5.66043
G1 X145.486 Y143.302 E5.75321
G1 X145.493 Y143.084 E5.75675
G1 X145.502 Y143.058 E5.75719
G1 X150.183 Y143.043 E5.83309
G0 F2880 X150.243 Y142.653
G1 F1200 X150.57 Y142.664 E5.8384
G1 X150.694 Y142.704 E5.84051
G1 X150.8 Y142.78 E5.84263
G1 X150.875 Y142.883 E5.84469
G1 X150.914 Y143.004 E5.84675
G1 X150.926 Y148.847 E5.94149
G1 X150.917 Y149.125 E5.946
G1 X150.875 Y149.253 E5.94819
G1 X150.8 Y149.356 E5.95025
G1 X150.696 Y149.432 E5.95234
G1 X150.573 Y149.471 E5.95444
G1 X145.777 Y149.483 E6.0322
G1 X145.455 Y149.473 E6.03742
G1 X145.328 Y149.432 E6.03959
G1 X145.221 Y149.355 E6.04172
G1 X145.147 Y149.253 E6.04377
G1 X145.108 Y149.132 E6.04583
G1 X145.096 Y143.289 E6.14057
G1 X145.105 Y143.016 E6.145
G1 X145.149 Y142.881 E6.1473
G1 X145.222 Y142.779 E6.14933
G1 X145.324 Y142.706 E6.15137
G1 X145.382 Y142.688 E6.15235
G1 X145.448 Y142.666 E6.15348
G1 X150.243 Y142.653 E6.23123
G0 F2880 X150.852 Y142.398
;TYPE:WALL-OUTER
G1 F1200 X151.043 Y142.536 E6.23505
G1 X151.181 Y142.726 E6.23886
G1 X151.254 Y142.951 E6.24269
G1 X151.266 Y148.859 E6.33849
G1 X151.255 Y149.182 E6.34373
G1 X151.181 Y149.41 E6.34761
G1 X151.044 Y149.599 E6.3514
G1 X150.851 Y149.739 E6.35526
G1 X150.628 Y149.811 E6.35906
G1 X145.768 Y149.823 E6.43787
G1 X145.397 Y149.812 E6.44388
G1 X145.171 Y149.738 E6.44774
G1 X144.978 Y149.599 E6.4516
G1 X144.841 Y149.41 E6.45538
G1 X144.768 Y149.185 E6.45922
G1 X144.756 Y143.277 E6.55501
G1 X144.767 Y142.955 E6.56024
G1 X144.841 Y142.726 E6.56414
G1 X144.979 Y142.536 E6.56795
G1 X145.169 Y142.398 E6.57175
G1 X145.393 Y142.326 E6.57557
G1 X150.253 Y142.313 E6.65437
G1 X150.627 Y142.325 E6.66044
G1 X150.852 Y142.398 E6.66427
G0 F2880 X151.043 Y142.536
G0 X151.14 Y142.669
G0 X150.792 Y142.922
G0 X150.783 Y142.928
G0 X148.588 Y144.988
;TYPE:SKIN
G1 F1200 X148.593 Y147.146 E6.69926
G1 X147.435 Y147.149 E6.71804
G1 X147.43 Y144.992 E6.75301
G1 X148.588 Y144.988 E6.77179
G0 F2880 X147.942 Y145.184
G1 F1200 X148.394 Y145.636 E6.78215
G0 F2880 X148.396 Y146.19
G1 F1200 X147.624 Y145.417 E6.79987
G0 F2880 X147.625 Y145.97
G1 F1200 X148.397 Y146.743 E6.81758
G0 F2880 X148.056 Y146.953
G1 F1200 X147.627 Y146.524 E6.82742
G1 F1800 E-3.17258
;MESH:KEY_F.STL(1)
G0 F2880 X148.71 Y149.475
G0 X148.726 Y155.477
G0 X148.729 Y157.426
;TYPE:WALL-INNER
G1 F1800 E6.82742
G1 F1200 X148.729 Y157.62 E6.83057
G1 X148.734 Y160.345 E6.87475
G1 X147.009 Y160.35 E6.90272
G1 X146.815 Y160.35 E6.90586
G1 X146.815 Y160.156 E6.9079
G1 X146.81 Y157.434 E6.95203
G1 X148.535 Y157.426 E6.98
G1 X148.729 Y157.426 E6.98204
G0 F2880 X149.118 Y157.229
G1 F1200 X149.125 Y160.734 E7.03887
G1 X146.62 Y160.741 E7.07949
G1 X146.426 Y160.741 E7.08263
G1 X146.426 Y160.547 E7.08467
G1 X146.419 Y157.045 E7.14145
G1 X148.924 Y157.035 E7.18207
G1 X149.118 Y157.035 E7.18521
G1 X149.118 Y157.229 E7.18725
G0 F2880 X149.507 Y156.838
G1 F1200 X149.516 Y161.123 E7.25673
G1 X146.231 Y161.132 E7.30999
G1 X146.037 Y161.132 E7.31314
G1 X146.037 Y160.938 E7.31517
G1 X146.028 Y156.656 E7.3846
G1 X149.313 Y156.644 E7.43787
G1 X149.507 Y156.644 E7.44101
G1 X149.507 Y156.838 E7.44305
G0 F2880 X149.896 Y156.447
G1 F1200 X149.907 Y161.512 E7.52517
G1 X145.842 Y161.523 E7.59108
G1 X145.648 Y161.523 E7.59423
G1 X145.648 Y161.329 E7.59626
G1 X145.637 Y156.267 E7.67834
G1 X149.702 Y156.253 E7.74425
G1 X149.896 Y156.253 E7.7474
G1 X149.896 Y156.447 E7.74943
G0 F2880 X149.945 Y155.863
G1 F1200 X149.993 Y155.863 E7.75021
G1 X150.258 Y155.871 E7.75451
G1 X150.285 Y155.885 E7.755
G1 X150.285 Y155.933 E7.75578
G1 X150.297 Y161.654 E7.84854
G1 X150.29 Y161.875 E7.85213
G1 X150.283 Y161.896 E7.85249
G1 X150.274 Y161.901 E7.85266
G1 X145.598 Y161.913 E7.92847
G1 X145.549 Y161.913 E7.92927
G1 X145.265 Y161.9 E7.93388
G1 X145.259 Y161.891 E7.93405
G1 X145.259 Y161.842 E7.93485
G1 X145.247 Y156.122 E8.02759
G1 X145.254 Y155.904 E8.03113
G1 X145.263 Y155.878 E8.03158
G1 X149.945 Y155.863 E8.10749
G0 F2880 X150.004 Y155.473
G1 F1200 X150.328 Y155.483 E8.11275
G1 X150.459 Y155.526 E8.11498
G1 X150.561 Y155.599 E8.11702
G1 X150.636 Y155.703 E8.1191
G1 X150.675 Y155.824 E8.12116
G1 X150.687 Y161.667 E8.2159
G1 X150.678 Y161.945 E8.22041
G1 X150.636 Y162.073 E8.22259
G1 X150.561 Y162.177 E8.22467
G1 X150.457 Y162.252 E8.22675
G1 X150.336 Y162.291 E8.22881
G1 X145.538 Y162.303 E8.30661
G1 X145.215 Y162.293 E8.31185
G1 X145.087 Y162.252 E8.31403
G1 X144.983 Y162.177 E8.31611
G1 X144.908 Y162.073 E8.31819
G1 X144.869 Y161.952 E8.32025
G1 X144.857 Y156.109 E8.41499
G1 X144.866 Y155.836 E8.41942
G1 X144.91 Y155.701 E8.42172
G1 X144.983 Y155.599 E8.42375
G1 X145.085 Y155.526 E8.42579
G1 X145.143 Y155.508 E8.42677
G1 X145.209 Y155.486 E8.4279
G1 X150.004 Y155.473 E8.50565
G0 F2880 X150.614 Y155.218
;TYPE:WALL-OUTER
G1 F1200 X150.804 Y155.356 E8.50945
G1 X150.942 Y155.546 E8.51326
G1 X151.015 Y155.771 E8.5171
G1 X151.027 Y161.679 E8.61289
G1 X151.016 Y162.002 E8.61813
G1 X150.942 Y162.23 E8.62202
G1 X150.804 Y162.42 E8.62583
G1 X150.614 Y162.558 E8.62963
G1 X150.389 Y162.631 E8.63347
G1 X145.529 Y162.643 E8.71227
G1 X145.158 Y162.632 E8.71829
G1 X144.93 Y162.558 E8.72218
G1 X144.74 Y162.42 E8.72598
G1 X144.602 Y162.23 E8.72979
G1 X144.529 Y162.005 E8.73363
G1 X144.517 Y156.097 E8.82942
G1 X144.528 Y155.775 E8.83465
G1 X144.602 Y155.546 E8.83855
G1 X144.74 Y155.356 E8.84235
G1 X144.93 Y155.218 E8.84616
G1 X145.154 Y155.146 E8.84998
G1 X150.014 Y155.133 E8.92878
G1 X150.387 Y155.145 E8.93483
G1 X150.614 Y155.218 E8.9387
G0 F2880 X150.804 Y155.356
G0 X150.901 Y155.49
G0 X150.553 Y155.743
G0 X150.545 Y155.748
G0 X148.349 Y157.808
;TYPE:SKIN
G1 F1200 X148.354 Y159.966 E8.97369
G1 X147.195 Y159.969 E8.99248
G1 X147.19 Y157.812 E9.02745
G1 X148.349 Y157.808 E9.04625
G0 F2880 X148.154 Y158.082
G1 F1200 X148.075 Y158.003 E9.04806
G0 F2880 X147.525 Y158.004
G1 F1200 X148.156 Y158.635 E9.06253
G0 F2880 X148.158 Y159.189
G1 F1200 X147.385 Y158.415 E9.08026
G0 F2880 X147.387 Y158.969
G1 F1200 X148.16 Y159.742 E9.09799
G0 F2880 X147.638 Y159.772
G1 F1200 X147.388 Y159.522 E9.10372
G1 F1800 E-0.89628
;MESH:KEY_F.STL(4)
G0 F2880 X144.859 Y157.056
G0 X139.838 Y157.066
G0 X137.888 Y157.07
