;FLAVOR:Marlin
;TIME:11307
;Filament used: 6.34518m
;Layer height: 0.15
;MINX:95.225
;MINY:87.609
;MINZ:0.1
;MAXX:204.775
;MAXY:193.775
;MAXZ:11.95
;Generated with Cura_SteamEngine 4.2.1
M140 S65
M105
M190 S65
M104 S230
M105
M109 S230
M82 ;absolute extrusion mode
G21 ;metric values
G90 ;absolute positioning
M82 ;set extruder to absolute mode
M107 ;start with the fan off
G28 X0 Y0 ;move X/Y to min endstops
G28 Z0 ;move Z to min endstops
G1 Z15.0 F120 ;move the platform down 15mm
G92 E0 ;zero the extruded length
G1 F200 E3 ;extrude 3mm of feed stock
G92 E0 ;zero the extruded length again
G1 F120
M117 Printing...
G5
M141 S28
G92 E0
G92 E0
G1 F1800 E-10
;LAYER_COUNT:80
;LAYER:0
M107
G0 F2880 X132.035 Y91.061 Z0.1
;TYPE:SKIRT
G1 F1800 E0
G1 F1200 X132.153 Y90.892 E0.00334
G1 X132.258 Y90.749 E0.00622
G1 X132.508 Y90.423 E0.01288
G1 X132.882 Y90.001 E0.02202
G1 X133.113 Y89.775 E0.02726
G1 X133.197 Y89.695 E0.02914
G1 X133.418 Y89.491 E0.03402
G1 X133.811 Y89.172 E0.04223
G1 X134.015 Y89.027 E0.04629
G1 X134.139 Y88.942 E0.04872
G1 X134.432 Y88.75 E0.0544
G1 X134.89 Y88.492 E0.06293
G1 X135.171 Y88.357 E0.06798
G1 X135.3 Y88.298 E0.07028
G1 X135.602 Y88.166 E0.07563
G1 X136.115 Y87.982 E0.08446
G1 X136.388 Y87.905 E0.08906
G1 X136.509 Y87.873 E0.09109
G1 X136.827 Y87.794 E0.0964
G1 X137.36 Y87.7 E0.10518
G1 X137.639 Y87.67 E0.10973
G1 X137.763 Y87.658 E0.11175
G1 X138.066 Y87.635 E0.11668
G1 X138.305 Y87.624 E0.12056
G1 X139.135 Y87.611 E0.13401
G1 X139.197 Y87.611 E0.13502
G1 X164.769 Y87.609 E0.54965
G1 X164.826 Y87.609 E0.55058
G1 X165.528 Y87.619 E0.56196
G1 X165.717 Y87.627 E0.56503
G1 X165.991 Y87.644 E0.56948
G1 X166.126 Y87.654 E0.57167
G1 X166.458 Y87.686 E0.57708
G1 X166.979 Y87.772 E0.58564
G1 X167.245 Y87.834 E0.59007
G1 X167.378 Y87.867 E0.59229
G1 X167.719 Y87.959 E0.59802
G1 X168.232 Y88.136 E0.60682
G1 X168.478 Y88.24 E0.61115
G1 X168.597 Y88.293 E0.61326
G1 X168.913 Y88.439 E0.61891
G1 X169.359 Y88.68 E0.62713
G1 X169.598 Y88.83 E0.6317
G1 X169.719 Y88.909 E0.63405
G1 X169.981 Y89.087 E0.63918
G1 X170.387 Y89.403 E0.64752
G1 X170.629 Y89.618 E0.65277
G1 X170.739 Y89.72 E0.6552
G1 X170.953 Y89.925 E0.66001
G1 X171.334 Y90.345 E0.6692
G1 X171.575 Y90.653 E0.67555
G1 X171.645 Y90.747 E0.67745
G1 X171.79 Y90.944 E0.68141
G1 X172.069 Y91.378 E0.68978
G1 X172.201 Y91.617 E0.6942
G1 X172.276 Y91.761 E0.69684
G1 X172.414 Y92.037 E0.70184
G1 X172.506 Y92.233 E0.70535
G1 X172.853 Y93.033 E0.71949
G1 X172.879 Y93.095 E0.72058
G1 X176.59 Y102.06 E0.8779
G1 X176.609 Y102.106 E0.87871
G1 X176.795 Y102.572 E0.88685
G1 X176.845 Y102.704 E0.88913
G1 X177.189 Y103.663 E0.90565
G1 X177.228 Y103.78 E0.90765
G1 X177.379 Y104.246 E0.9156
G1 X177.467 Y104.56 E0.92088
G1 X177.532 Y104.836 E0.92548
G1 X177.56 Y104.965 E0.92762
G1 X177.615 Y105.239 E0.93215
G1 X177.627 Y105.297 E0.93311
G1 X177.952 Y107.052 E0.96205
G1 X177.961 Y107.106 E0.96294
G1 X178.107 Y107.961 E0.977
G1 X178.644 Y110.642 E1.02134
G1 X179.251 Y113.281 E1.06525
G1 X179.934 Y115.907 E1.10924
G1 X180.695 Y118.532 E1.15356
G1 X181.519 Y121.092 E1.19716
G1 X182.426 Y123.665 E1.2414
G1 X183.394 Y126.18 E1.28509
G1 X184.456 Y128.724 E1.32979
G1 X185.555 Y131.156 E1.37306
G1 X186.771 Y133.661 E1.41821
G1 X188.001 Y136.021 E1.46137
G1 X189.333 Y138.408 E1.50569
G1 X190.721 Y140.738 E1.54966
G1 X192.166 Y143.016 E1.5934
G1 X193.972 Y145.681 E1.6456
G1 X194.018 Y145.752 E1.64697
G1 X194.535 Y146.551 E1.6624
G1 X194.753 Y146.932 E1.66952
G1 X194.912 Y147.25 E1.67529
G1 X195.044 Y147.542 E1.68048
G1 X195.235 Y148.016 E1.68877
G1 X195.279 Y148.131 E1.69076
G1 X195.673 Y149.202 E1.70927
G1 X196.642 Y151.723 E1.75306
G1 X197.701 Y154.262 E1.79766
G1 X198.815 Y156.73 E1.84157
G1 X199.988 Y159.147 E1.88513
G1 X201.255 Y161.581 E1.92962
G1 X203.245 Y165.096 E1.99512
G1 X203.898 Y166.195 E2.01584
G1 X204.147 Y166.688 E2.0248
G1 X204.313 Y167.084 E2.03176
G1 X204.507 Y167.674 E2.04183
G1 X204.614 Y168.11 E2.04911
G1 X204.715 Y168.724 E2.0592
G1 X204.75 Y169.14 E2.06597
G1 X204.763 Y169.381 E2.06988
G1 X204.774 Y169.855 E2.07757
G1 X204.775 Y169.947 E2.07906
G1 X204.775 Y171.787 E2.1089
G1 X204.769 Y172.223 E2.11597
G1 X204.765 Y172.357 E2.11814
G1 X204.729 Y173.115 E2.13045
G1 X204.638 Y173.788 E2.14146
G1 X204.592 Y173.995 E2.14489
G1 X204.565 Y174.109 E2.14679
G1 X204.508 Y174.334 E2.15056
G1 X204.327 Y174.881 E2.1599
G1 X204.159 Y175.286 E2.16701
G1 X203.887 Y175.823 E2.17677
G1 X203.664 Y176.191 E2.18375
G1 X203.357 Y176.627 E2.19239
G1 X203.05 Y177.008 E2.20033
G1 X201.334 Y179.205 E2.24553
G1 X199.754 Y181.348 E2.2887
G1 X198.17 Y183.629 E2.33373
G1 X196.695 Y185.886 E2.37744
G1 X195.277 Y188.199 E2.42143
G1 X194.63 Y189.307 E2.44224
G1 X194.56 Y189.422 E2.44442
G1 X194.301 Y189.833 E2.4523
G1 X194.028 Y190.215 E2.45991
G1 X193.557 Y190.797 E2.47205
G1 X193.247 Y191.137 E2.47951
G1 X193.012 Y191.367 E2.48484
G1 X192.777 Y191.58 E2.48999
G1 X192.441 Y191.86 E2.49708
G1 X192.055 Y192.144 E2.50485
G1 X191.449 Y192.536 E2.51655
G1 X191.072 Y192.751 E2.52359
G1 X190.757 Y192.909 E2.5293
G1 X190.458 Y193.044 E2.53462
G1 X189.983 Y193.235 E2.54292
G1 X189.556 Y193.379 E2.55023
G1 X189.32 Y193.444 E2.5542
G1 X189.149 Y193.487 E2.55706
G1 X188.654 Y193.6 E2.56529
G1 X188.22 Y193.674 E2.57243
G1 X187.966 Y193.703 E2.57657
G1 X187.786 Y193.72 E2.5795
G1 X187.274 Y193.755 E2.58782
G1 X187.059 Y193.764 E2.59131
G1 X186.418 Y193.773 E2.60171
G1 X186.362 Y193.773 E2.60262
G1 X114.481 Y193.775 E3.76812
G1 X113.651 Y193.775 E3.78158
G1 X112.946 Y193.765 E3.79301
G1 X112.825 Y193.761 E3.79497
G1 X112.601 Y193.751 E3.79861
G1 X112.408 Y193.738 E3.80174
G1 X111.991 Y193.699 E3.80853
G1 X111.53 Y193.628 E3.8161
G1 X110.819 Y193.476 E3.82789
G1 X110.38 Y193.356 E3.83526
G1 X110.03 Y193.238 E3.84125
G1 X109.733 Y193.124 E3.84641
G1 X109.283 Y192.931 E3.85435
G1 X108.898 Y192.741 E3.86131
G1 X108.678 Y192.617 E3.86541
G1 X108.519 Y192.522 E3.86841
G1 X108.176 Y192.307 E3.87497
G1 X107.786 Y192.028 E3.88275
G1 X107.203 Y191.556 E3.89491
G1 X106.863 Y191.247 E3.90236
G1 X106.633 Y191.012 E3.90769
G1 X106.42 Y190.777 E3.91284
G1 X106.14 Y190.441 E3.91993
G1 X105.856 Y190.055 E3.9277
G1 X105.464 Y189.449 E3.9394
G1 X105.393 Y189.334 E3.94159
G1 X104.797 Y188.34 E3.96038
G1 X104.765 Y188.286 E3.9614
G1 X104.635 Y188.061 E3.96561
G1 X103.214 Y185.753 E4.00956
G1 X101.713 Y183.463 E4.05396
G1 X100.16 Y181.235 E4.09799
G1 X98.573 Y179.088 E4.14128
G1 X97.503 Y177.743 E4.16915
G1 X97.467 Y177.696 E4.17011
G1 X96.589 Y176.558 E4.19342
G1 X96.343 Y176.201 E4.20045
G1 X96.13 Y175.852 E4.20708
G1 X95.862 Y175.329 E4.2166
G1 X95.692 Y174.927 E4.22368
G1 X95.497 Y174.343 E4.23366
G1 X95.387 Y173.903 E4.24102
G1 X95.279 Y173.24 E4.25191
G1 X95.247 Y172.818 E4.25877
G1 X95.238 Y172.653 E4.26145
G1 X95.23 Y172.42 E4.26523
G1 X95.228 Y172.325 E4.26677
G1 X95.225 Y172.036 E4.27146
G1 X95.225 Y170.213 E4.30102
G1 X95.231 Y169.777 E4.30809
G1 X95.236 Y169.638 E4.31034
G1 X95.273 Y168.882 E4.32261
G1 X95.357 Y168.239 E4.33313
G1 X95.402 Y168.03 E4.3366
G1 X95.435 Y167.891 E4.33891
G1 X95.492 Y167.666 E4.34268
G1 X95.673 Y167.119 E4.35202
G1 X95.841 Y166.714 E4.35913
G1 X96.055 Y166.276 E4.36703
G1 X96.207 Y166.008 E4.37203
G1 X96.26 Y165.918 E4.37372
G1 X96.449 Y165.604 E4.37966
G1 X97.851 Y163.201 E4.42477
G1 X99.159 Y160.805 E4.46903
G1 X100.368 Y158.43 E4.51225
G1 X101.552 Y155.937 E4.55699
G1 X102.641 Y153.461 E4.60085
G1 X103.651 Y150.982 E4.64426
G1 X104.199 Y149.491 E4.67001
G1 X104.218 Y149.441 E4.67088
G1 X104.817 Y147.878 E4.69802
G1 X104.876 Y147.733 E4.70056
G1 X105.069 Y147.283 E4.7085
G1 X105.259 Y146.898 E4.71546
G1 X105.383 Y146.678 E4.71955
G1 X105.474 Y146.525 E4.72244
G1 X105.685 Y146.187 E4.7289
G1 X105.971 Y145.787 E4.73687
G1 X107.246 Y144.216 E4.76968
G1 X108.962 Y142.037 E4.81465
G1 X110.566 Y139.88 E4.85824
G1 X112.139 Y137.633 E4.90271
G1 X113.615 Y135.395 E4.94618
G1 X115.061 Y133.057 E4.99075
G1 X116.409 Y130.734 E5.0343
G1 X117.721 Y128.32 E5.07885
G1 X118.942 Y125.911 E5.12264
G1 X120.107 Y123.447 E5.16683
G1 X121.191 Y120.97 E5.21067
G1 X122.214 Y118.445 E5.25485
G1 X123.152 Y115.925 E5.29845
G1 X124.032 Y113.339 E5.34274
G1 X124.835 Y110.74 E5.38684
G1 X125.562 Y108.126 E5.43084
G1 X126.222 Y105.472 E5.47518
G1 X126.256 Y105.312 E5.47783
G1 X126.281 Y105.203 E5.47965
G1 X126.436 Y104.565 E5.49029
G1 X126.493 Y104.358 E5.49377
G1 X126.564 Y104.122 E5.49777
G1 X126.599 Y104.01 E5.49967
G1 X126.711 Y103.674 E5.50541
G1 X126.734 Y103.606 E5.50658
G1 X126.88 Y103.193 E5.51368
G1 X126.926 Y103.071 E5.51579
G1 X127.368 Y101.94 E5.53548
G1 X127.397 Y101.867 E5.53676
G1 X131.087 Y92.948 E5.69326
G1 X131.112 Y92.888 E5.69432
G1 X131.371 Y92.29 E5.70488
G1 X131.458 Y92.104 E5.70821
G1 X131.582 Y91.854 E5.71274
G1 X131.636 Y91.749 E5.71465
G1 X131.787 Y91.466 E5.71985
G1 X132.035 Y91.061 E5.72755
G0 F2880 X132.355 Y91.285
G1 F1200 X132.473 Y91.116 E5.73089
G1 X132.567 Y90.986 E5.73349
G1 X132.817 Y90.66 E5.74016
G1 X133.155 Y90.279 E5.74841
G1 X133.386 Y90.053 E5.75365
G1 X133.461 Y89.982 E5.75533
G1 X133.682 Y89.778 E5.76021
G1 X134.037 Y89.49 E5.76762
G1 X134.241 Y89.345 E5.77168
G1 X134.353 Y89.268 E5.77388
G1 X134.646 Y89.076 E5.77956
G1 X135.059 Y88.844 E5.78724
G1 X135.34 Y88.709 E5.79229
G1 X135.456 Y88.655 E5.79437
G1 X135.758 Y88.523 E5.79971
G1 X136.221 Y88.358 E5.80768
G1 X136.494 Y88.281 E5.81228
G1 X136.603 Y88.252 E5.81411
G1 X136.921 Y88.173 E5.81942
G1 X137.402 Y88.088 E5.82734
G1 X137.681 Y88.058 E5.83189
G1 X137.793 Y88.047 E5.83372
G1 X138.096 Y88.024 E5.83865
G1 X138.311 Y88.014 E5.84214
G1 X139.141 Y88.001 E5.8556
G1 X139.197 Y88.001 E5.8565
G1 X164.769 Y87.999 E6.27114
G1 X164.82 Y87.999 E6.27196
G1 X165.522 Y88.009 E6.28335
G1 X165.693 Y88.016 E6.28612
G1 X165.967 Y88.033 E6.29057
G1 X166.089 Y88.043 E6.29256
G1 X166.421 Y88.075 E6.29797
G1 X166.891 Y88.152 E6.30569
G1 X167.157 Y88.214 E6.31012
G1 X167.277 Y88.244 E6.31212
G1 X167.618 Y88.336 E6.31785
G1 X168.08 Y88.495 E6.32577
G1 X168.326 Y88.599 E6.3301
G1 X168.434 Y88.647 E6.33202
G1 X168.75 Y88.793 E6.33766
G1 X169.152 Y89.011 E6.34508
G1 X169.391 Y89.161 E6.34965
G1 X169.5 Y89.232 E6.35176
G1 X169.762 Y89.41 E6.3569
G1 X170.128 Y89.695 E6.36442
G1 X170.37 Y89.91 E6.36967
G1 X170.469 Y90.001 E6.37185
G1 X170.683 Y90.206 E6.37665
G1 X171.026 Y90.586 E6.38495
G1 X171.267 Y90.894 E6.39129
G1 X171.331 Y90.978 E6.39301
G1 X171.476 Y91.175 E6.39697
G1 X171.727 Y91.567 E6.40452
G1 X171.859 Y91.806 E6.40895
G1 X171.928 Y91.936 E6.41133
G1 X172.066 Y92.212 E6.41634
G1 X172.148 Y92.388 E6.41948
G1 X172.495 Y93.188 E6.43362
G1 X172.518 Y93.244 E6.43461
G1 X176.229 Y102.209 E6.59193
G1 X176.247 Y102.251 E6.59267
G1 X176.433 Y102.717 E6.6008
G1 X176.477 Y102.836 E6.60286
G1 X176.821 Y103.795 E6.61938
G1 X176.857 Y103.9 E6.62118
G1 X177.008 Y104.366 E6.62912
G1 X177.088 Y104.649 E6.63389
G1 X177.153 Y104.925 E6.63849
G1 X177.178 Y105.041 E6.64041
G1 X177.233 Y105.315 E6.64495
G1 X177.243 Y105.368 E6.64582
G1 X177.568 Y107.123 E6.67476
G1 X177.577 Y107.172 E6.67557
G1 X177.729 Y108.061 E6.69019
G1 X178.259 Y110.71 E6.73399
G1 X178.876 Y113.393 E6.77863
G1 X179.552 Y115.99 E6.82214
G1 X180.316 Y118.626 E6.86664
G1 X181.157 Y121.24 E6.91117
G1 X182.057 Y123.79 E6.95501
G1 X183.033 Y126.325 E6.99906
G1 X184.095 Y128.873 E7.04382
G1 X185.211 Y131.342 E7.08775
G1 X186.416 Y133.823 E7.13247
G1 X187.649 Y136.19 E7.17575
G1 X188.998 Y138.607 E7.22063
G1 X190.391 Y140.946 E7.26477
G1 X191.849 Y143.243 E7.30888
G1 X193.649 Y145.9 E7.36092
G1 X193.691 Y145.963 E7.36215
G1 X194.208 Y146.762 E7.37758
G1 X194.405 Y147.107 E7.38402
G1 X194.564 Y147.425 E7.38978
G1 X194.682 Y147.688 E7.39446
G1 X194.873 Y148.162 E7.40274
G1 X194.913 Y148.265 E7.40454
G1 X195.305 Y149.332 E7.42297
G1 X196.285 Y151.88 E7.46723
G1 X197.335 Y154.398 E7.51147
G1 X198.471 Y156.915 E7.55624
G1 X199.639 Y159.323 E7.59964
G1 X200.907 Y161.757 E7.64414
G1 X202.91 Y165.294 E7.71004
G1 X203.563 Y166.394 E7.73079
G1 X203.787 Y166.839 E7.73886
G1 X203.953 Y167.235 E7.74583
G1 X204.129 Y167.767 E7.75491
G1 X204.236 Y168.203 E7.76219
G1 X204.326 Y168.756 E7.77128
G1 X204.361 Y169.172 E7.77804
G1 X204.373 Y169.39 E7.78158
G1 X204.384 Y169.864 E7.78927
G1 X204.385 Y169.947 E7.79062
G1 X204.385 Y171.781 E7.82036
G1 X204.379 Y172.217 E7.82743
G1 X204.375 Y172.338 E7.82939
G1 X204.339 Y173.096 E7.84169
G1 X204.258 Y173.704 E7.85164
G1 X204.212 Y173.911 E7.85508
G1 X204.187 Y174.013 E7.85678
G1 X204.13 Y174.238 E7.86054
G1 X203.966 Y174.732 E7.86898
G1 X203.798 Y175.137 E7.87609
G1 X203.553 Y175.621 E7.88489
G1 X203.33 Y175.989 E7.89186
G1 X203.054 Y176.382 E7.89965
G1 X202.727 Y176.788 E7.9081
G1 X201.037 Y178.951 E7.95261
G1 X199.415 Y181.151 E7.99693
G1 X197.876 Y183.368 E8.04069
G1 X196.355 Y185.694 E8.08575
G1 X194.934 Y188.013 E8.12985
G1 X194.293 Y189.11 E8.15045
G1 X194.23 Y189.214 E8.15242
G1 X193.971 Y189.625 E8.1603
G1 X193.725 Y189.969 E8.16716
G1 X193.254 Y190.551 E8.1793
G1 X192.975 Y190.858 E8.18602
G1 X192.74 Y191.088 E8.19135
G1 X192.527 Y191.28 E8.196
G1 X192.191 Y191.56 E8.2031
G1 X191.843 Y191.816 E8.2101
G1 X191.237 Y192.208 E8.2218
G1 X190.897 Y192.402 E8.22815
G1 X190.582 Y192.56 E8.23386
G1 X190.312 Y192.682 E8.23867
G1 X189.837 Y192.873 E8.24697
G1 X189.452 Y193.003 E8.25356
G1 X189.216 Y193.068 E8.25753
G1 X189.062 Y193.107 E8.2601
G1 X188.567 Y193.22 E8.26834
G1 X188.176 Y193.287 E8.27477
G1 X187.922 Y193.316 E8.27891
G1 X187.759 Y193.331 E8.28157
G1 X187.247 Y193.366 E8.28989
G1 X187.053 Y193.374 E8.29304
G1 X186.412 Y193.383 E8.30343
G1 X186.362 Y193.383 E8.30424
G1 X114.481 Y193.385 E9.46974
G1 X113.656 Y193.385 E9.48312
G1 X112.951 Y193.375 E9.49455
G1 X112.842 Y193.371 E9.49632
G1 X112.618 Y193.361 E9.49996
G1 X112.444 Y193.349 E9.50278
G1 X112.027 Y193.31 E9.50957
G1 X111.612 Y193.247 E9.51638
G1 X110.901 Y193.095 E9.52817
G1 X110.505 Y192.986 E9.53483
G1 X110.155 Y192.868 E9.54082
G1 X109.887 Y192.766 E9.54547
G1 X109.437 Y192.573 E9.55341
G1 X109.09 Y192.401 E9.55969
G1 X108.87 Y192.277 E9.56378
G1 X108.726 Y192.192 E9.56649
G1 X108.383 Y191.977 E9.57306
G1 X108.031 Y191.725 E9.58008
G1 X107.448 Y191.253 E9.59224
G1 X107.142 Y190.975 E9.59894
G1 X106.912 Y190.74 E9.60427
G1 X106.72 Y190.527 E9.60892
G1 X106.44 Y190.191 E9.61601
G1 X106.184 Y189.843 E9.62302
G1 X105.792 Y189.237 E9.63472
G1 X105.727 Y189.134 E9.6367
G1 X105.131 Y188.14 E9.65549
G1 X105.102 Y188.09 E9.65643
G1 X104.963 Y187.85 E9.66092
G1 X103.532 Y185.525 E9.70519
G1 X102.051 Y183.266 E9.74899
G1 X100.486 Y181.021 E9.79336
G1 X98.876 Y178.842 E9.83729
G1 X97.808 Y177.5 E9.8651
G1 X97.776 Y177.458 E9.86596
G1 X96.898 Y176.32 E9.88926
G1 X96.676 Y175.998 E9.8956
G1 X96.463 Y175.649 E9.90223
G1 X96.221 Y175.177 E9.91083
G1 X96.051 Y174.775 E9.91791
G1 X95.875 Y174.248 E9.92692
G1 X95.765 Y173.808 E9.93427
G1 X95.668 Y173.21 E9.94409
G1 X95.636 Y172.788 E9.95096
G1 X95.628 Y172.64 E9.95336
G1 X95.62 Y172.407 E9.95714
G1 X95.618 Y172.321 E9.95853
G1 X95.615 Y172.032 E9.96322
G1 X95.615 Y170.219 E9.99262
G1 X95.621 Y169.783 E9.99969
G1 X95.625 Y169.657 E10.00173
G1 X95.662 Y168.901 E10.014
G1 X95.738 Y168.321 E10.02349
G1 X95.783 Y168.112 E10.02696
G1 X95.813 Y167.987 E10.02904
G1 X95.87 Y167.762 E10.0328
G1 X96.034 Y167.268 E10.04124
G1 X96.202 Y166.863 E10.04835
G1 X96.395 Y166.468 E10.05548
G1 X96.547 Y166.2 E10.06048
G1 X96.594 Y166.12 E10.06198
G1 X96.786 Y165.801 E10.06802
G1 X98.196 Y163.383 E10.1134
G1 X99.479 Y161.035 E10.15679
G1 X100.726 Y158.585 E10.20136
G1 X101.912 Y156.087 E10.2462
G1 X102.997 Y153.62 E10.2899
G1 X104.018 Y151.114 E10.33377
G1 X104.565 Y149.626 E10.35948
G1 X104.582 Y149.58 E10.36027
G1 X105.181 Y148.017 E10.38741
G1 X105.234 Y147.887 E10.38969
G1 X105.427 Y147.437 E10.39763
G1 X105.599 Y147.09 E10.40391
G1 X105.723 Y146.87 E10.408
G1 X105.805 Y146.732 E10.41061
G1 X106.016 Y146.394 E10.41707
G1 X106.273 Y146.033 E10.42425
G1 X107.574 Y144.43 E10.45773
G1 X109.238 Y142.317 E10.50134
G1 X110.886 Y140.102 E10.5461
G1 X112.448 Y137.871 E10.59026
G1 X113.963 Y135.574 E10.63488
G1 X115.39 Y133.268 E10.67885
G1 X116.755 Y130.915 E10.72295
